X: 9401
T: Dangerous Dan's
R: jig
M: 6/8
K: Gmajor
GFG E2 D|GBd g2 d|fed ABd|BAG E2 F|
GAG EFD|GB/c/d gdg|fdG FDg|fdB G2:|
abg e2 d|bgc' bag|a2 g fdg|fdg f2 a|
ab/a/g edg|bgc' b2 g|a2 g fdg|fdf g2:|

